X: 23070
T: Latifa's
R: jig
M: 6/8
K: Amajor
|:f2a fec|efe BAB|ccc Bce|ccB Bce|
ffa fec|efe BAB|AAA ecA|AAB cfe:|
|:cef afB-|Bef afA-|AAA BAB|cce BAB|
cef afB-|Bef afe|ffe ecB|1 cFA BAB:|2 cFA Bce||

